!!!COM: Luzzaschi, Luzzasco
!!!CDT:
!!!PTL: Il secondo libro de madrigali a cinque voci
!!!PPP: Venice
!!!PPR: Angelo Gardano
!!!PDT: 1576
!!!PUB-format:
!!!RISM: L 3123
!!!rime: 367
!!!OTL: Aminta poi ch'a Filli non dispiacque
!!!AGN: Madrigal
!!!SCT: Trm0367a
!!!SCA: Trm0367a
!!!original-voices: 5
!!!extant-voices: 5
!!!complete: Y
!!!final: (E)A
**kern	**text	**kern	**text	**kern	**text	**kern	**text	**kern	**text
*part5	*part5	*part4	*part4	*part3	*part3	*part2	*part2	*part1	*part1
*staff5	*staff5	*staff4	*staff4	*staff3	*staff3	*staff2	*staff2	*staff1	*staff1
*I"Basso	*	*I"Quinto	*	*I"Tenore	*	*I"Alto	*	*I"Canto	*
*I'B	*	*I'V	*	*I'T	*	*I'A	*	*I'C	*
*oclefC4	*	*oclefC3	*	*oclefC3	*	*oclefC2	*	*oclefG2	*
*clefF4	*	*clefGv2	*	*clefGv2	*	*clefG2	*	*clefG2	*
*k[]	*	*k[]	*	*k[]	*	*k[]	*	*k[]	*
*C:	*	*C:	*	*C:	*	*C:	*	*C:	*
*omet(C)	*	*omet(C)	*	*omet(C)	*	*omet(C)	*	*omet(C)	*
*M4/2	*	*M4/2	*	*M4/2	*	*M4/2	*	*M4/2	*
=1	=1	=1	=1	=1	=1	=1	=1	=1	=1
!!LO:TX:a:t=[Prima parte.]
0r	.	0r	.	2A	A-	2r	.	0r	.
.	.	.	.	2.A	-min-	4r	.	.	.
.	.	.	.	.	.	4e	A-	.	.
.	.	.	.	.	.	4c	-min-	.	.
.	.	.	.	4G	-ta,	4d	-ta,	.	.
.	.	.	.	4c	poi	4e	poi	.	.
.	.	.	.	4c	ch'a	4g	ch'a	.	.
=2	=2	=2	=2	=2	=2	=2	=2	=2	=2
2r	.	0r	.	2d	Fil-	4f	Fil-	1r	.
.	.	.	.	.	.	8eL	.	.	.
.	.	.	.	.	.	8dJ	.	.	.
2A	A-	.	.	4e	-li	8cL	.	.	.
.	.	.	.	.	.	8BJ	.	.	.
.	.	.	.	4.e	non	4.c	.	.	.
2.A	-min-	.	.	.	.	.	.	4r	.
.	.	.	.	8dL	.	8d	.	.	.
.	.	.	.	8c	.	2e	.	4cc	A-
.	.	.	.	8BJ	.	.	.	.	.
.	.	.	.	4c	.	.	.	4a	-min-
4G	-ta,	.	.	4d	di-	4g	-li	4b	-ta,
=3	=3	=3	=3	=3	=3	=3	=3	=3	=3
4c	poi	0r	.	8eL	-spiac-	4g	non	4cc	poi
.	.	.	.	8f	.	.	.	.	.
4c	ch'a	.	.	8g	.	4cc	di-	4ee	ch'a
.	.	.	.	8aJ	.	.	.	.	.
2d	Fil-	.	.	2f	.	2a	-spiac-	4ff	Fil-
.	.	.	.	.	.	.	.	8eeL	.
.	.	.	.	.	.	.	.	8ddJ	.
2A	-li	.	.	4e	-que,	2a	-que,	8ccL	.
.	.	.	.	.	.	.	.	8bJ	.
.	.	.	.	2e	Del	.	.	4.cc	.
4.c	non	.	.	.	.	2g	Del	.	.
.	.	.	.	.	.	.	.	8dd	.
.	.	.	.	4e	me-	.	.	[4ee	.
8B	.	.	.	.	.	.	.	.	.
=4	=4	=4	=4	=4	=4	=4	=4	=4	=4
8AL	.	1r	.	2e	-de-	4cc	me-	4ee]	.
8GJ	.	.	.	.	.	.	.	.	.
2A	.	.	.	.	.	4.a	-de-	4cc	-li
.	.	.	.	4e	-smo	.	.	4cc	non
.	.	.	.	.	.	8a	-smo	.	.
4D	di-	.	.	4d	de-	4a	de-	4ff	di-
2A	-spiac-	4r	.	4c	-sir	4a	-sir	2ee	-spiac-
.	.	2e	Del	4A	mo-	4cc	mo-	.	.
4E	-que,	.	.	4A	-strar-	4cc	-strar-	4ee	-que,
4E	Del	4e	me-	4G	-si ac-	4b	-si ac-	[4gg	Del
=5	=5	=5	=5	=5	=5	=5	=5	=5	=5
4C	me-	2e	-de-	8cL	-ce-	2cc	-ce-	4gg]	.
.	.	.	.	8d	.	.	.	.	.
4.C	-de-	.	.	8e	.	.	.	4gg	me-
.	.	.	.	8fJ	.	.	.	.	.
.	.	4e	-smo	2g	.	4cc	-sa,	2gg	-de-
8C	-smo	.	.	.	.	.	.	.	.
4G	de-	4d	de-	.	.	4b	mo-	.	.
2.c	-sir	4c	-sir	4e	-sa,	8cc	-strar-	4gg	-smo
.	.	.	.	.	.	8g	-si ac-	.	.
.	.	4A	mo-	4a	mo-	4.cc	-ce-	4ff	de-
.	.	4A	-strar-	4a	-strar-	.	.	4ee	-sir
.	.	.	.	.	.	16bL	.	.	.
.	.	.	.	.	.	16aJ	.	.	.
4d	mo-	4G	-si ac-	4d	-si ac-	4b	.	4gg	mo-
=6	=6	=6	=6	=6	=6	=6	=6	=6	=6
4.e	-strar-	8cL	-ce-	4.c	-ce-	2cc	-sa,	2gg	-strar-
.	.	8d	.	.	.	.	.	.	.
.	.	8e	.	.	.	.	.	.	.
8d	.	8fJ	.	8d	.	.	.	.	.
4c	.	2g	.	8eL	.	2r	.	4ee	-si ac-
.	.	.	.	8f	.	.	.	.	.
4B	-si ac-	.	.	8g	.	.	.	[4dd	-ce-
.	.	.	.	8dJ	.	.	.	.	.
2c	-ce-	1g	-sa,	4.e	.	1r	.	8dd]L	.
.	.	.	.	.	.	.	.	8ccJ	.
.	.	.	.	.	.	.	.	4.cc	.
.	.	.	.	16dL	.	.	.	.	.
.	.	.	.	16cJ	.	.	.	.	.
2G	-sa,	.	.	2d	.	.	.	.	.
.	.	.	.	.	.	.	.	16bL	.
.	.	.	.	.	.	.	.	16aJ	.
.	.	.	.	.	.	.	.	4b	.
=7	=7	=7	=7	=7	=7	=7	=7	=7	=7
1r	.	1r	.	1c	-sa,	2e	E	2cc	-sa,
.	.	.	.	.	.	4g	ch'el-	4r	.
.	.	.	.	.	.	4a	-la a	4cc	E
2r	.	2r	.	1r	.	4g	que-	4ee	ch'el-
.	.	.	.	.	.	4f	-sto	4ff	-la a
4r	.	4r	.	.	.	2g	sol	4ee	que-
4B	già	4g	già	.	.	.	.	4dd	-sto
=8	=8	=8	=8	=8	=8	=8	=8	=8	=8
4c	tan-	4g	tan-	0r	.	2r	.	2ee	sol
4c	-to at-	4e	-to at-	.	.	.	.	.	.
4.A	-te-	8fL	-te-	.	.	4r	.	2r	.
.	.	8eJ	.	.	.	.	.	.	.
.	.	4.e	.	.	.	4cc	già	.	.
8G	.	.	.	.	.	.	.	.	.
2F	.	.	.	.	.	4cc	tan-	2r	.
.	.	16dL	.	.	.	.	.	.	.
.	.	16cJ	.	.	.	.	.	.	.
.	.	4d	.	.	.	4a	-to at-	.	.
4E	-sa,	4G	-sa,	.	.	8ccL	-te-	4r	.
.	.	.	.	.	.	8bJ	.	.	.
4E	già	4G	già	.	.	[4b	.	4ee	già
=9	=9	=9	=9	=9	=9	=9	=9	=9	=9
4D	tan-	4A	tan-	4r	.	8b]L	.	4ff	tan-
.	.	.	.	.	.	16a	.	.	.
.	.	.	.	.	.	16gJ	.	.	.
4D	-to at-	4d	-to at-	4A	Ne	2a	.	4ff	-to at-
2E	-te-	2B	-te-	4.e	le	.	.	4.ee	-te-
.	.	.	.	.	.	4g	-sa,	.	.
.	.	.	.	8e	sue	.	.	8dd	.
2A	-sa,	4c	-sa,	4e	brac-	1r	.	2cc	.
.	.	4A	Ne	4f#X	-cia al	.	.	.	.
4r	.	4.e	le	2g	fin	.	.	4b	-sa,
4E	Ne	.	.	.	.	.	.	4b	Ne
.	.	8e	sue	.	.	.	.	.	.
=10	=10	=10	=10	=10	=10	=10	=10	=10	=10
4.A	le	2e	brac-	0r	.	1r	.	4cc	le
.	.	.	.	.	.	.	.	4cc	sue
8A	sue	.	.	.	.	.	.	.	.
4A	brac-	4f#X	-cia al	.	.	.	.	4a	brac-
4B	-cia al	4g	fin	.	.	.	.	4dd	-cia al
2c	fin,	1r	.	.	.	4r	.	4ee	fin
.	.	.	.	.	.	4e	Ne	4gg	nu-
2r	.	.	.	.	.	4.a	le	4ff	-da
.	.	.	.	.	.	.	.	4ee	si
.	.	.	.	.	.	8a	sue	.	.
=11	=11	=11	=11	=11	=11	=11	=11	=11	=11
2r	.	4r	.	1r	.	4a	brac-	2ff	giac-
.	.	4d	nu-	.	.	4b	-cia al	.	.
4r	.	4c	-da	.	.	4cc	fin	2ee	-que,
4E	<Ne	4B	si	.	.	4g	nu-	.	.
4.A	le	2c	giac-	2r	.	4f	-da	1r	.
.	.	.	.	.	.	4e	si	.	.
8A	sue	.	.	.	.	.	.	.	.
4A	brac-	4A	-que,	4r	.	2f	giac-	.	.
4B	-cia al	4d	Ne	[4d	nu-	.	.	.	.
=12	=12	=12	=12	=12	=12	=12	=12	=12	=12
2c	fin>	4g	le	4d]	.	4e	-que,	0r	.
.	.	4g	sue	2c	-da	4e	nu-	.	.
2G	nu-	2g	brac-	.	.	8d	-da	.	.
.	.	.	.	.	.	8c	si	.	.
.	.	.	.	4B	si	8.dL	giac-	.	.
.	.	.	.	.	.	16eJ	.	.	.
4F	-da	4a	-cia al	2c	giac-	8fL	.	.	.
.	.	.	.	.	.	8cJ	.	.	.
4E	si	4g	fin	.	.	4.e	.	.	.
2F	giac-	4r	.	2A	-que,	.	.	.	.
.	.	.	.	.	.	16dL	.	.	.
.	.	.	.	.	.	16cJ	.	.	.
.	.	4d	nu-	.	.	4d	.	.	.
=13	=13	=13	=13	=13	=13	=13	=13	=13	=13
1E	-que,	4c	-da	1r	.	1e	-que,	1r	.
.	.	4B	si	.	.	.	.	.	.
.	.	2c	giac-	.	.	.	.	.	.
2r	.	1B	-que,	2r	.	2r	.	2r	.
2E	Dal	.	.	2e	Dal	2g#X	Dal	2b	Dal
=14	=14	=14	=14	=14	=14	=14	=14	=14	=14
4E	so-	1r	.	4e	so-	4g#i	so-	4b	so-
4.A	-ver-	.	.	4.e	-ver-	4.a	-ver-	4.cc	-ver-
8A	-chio	.	.	8e	-chio	8a	-chio	8cc	-chio
4D	pia-	.	.	4d	pia-	4f#X	pia-	4a	pia-
4G	-cer	4r	.	4d	-cer	4gnXi	-cer	4b	-cer
4C	sen-	4e	Dal	4c	sen-	4g	sen-	4cc	sen-
4C	-ten-	4e	so-	4c	-ten-	4g	-ten-	4cc	-ten-
4F	-do of-	[4a	-ver-	4A	-do of-	4c	-do of-	4cc	-do of-
=15	=15	=15	=15	=15	=15	=15	=15	=15	=15
2D	-fe-	8a]	.	4.A	-fe-	2fnXi	-fe-	2dd	-fe-
.	.	8a	-chio	.	.	.	.	.	.
.	.	4d	pia-	.	.	.	.	.	.
.	.	.	.	8B	.	.	.	.	.
2C	-sa,	4g	-cer	4c	.	2e	-sa,	2ee	-sa,
.	.	4g	sen-	2G	-sa,	.	.	.	.
2G	L'al-	4g	-ten-	.	.	2d	L'al-	2b	L'al-
.	.	4g	-do of-	4.d	L'al-	.	.	.	.
4D	-ma	2a	-fe-	.	.	4f	-ma	4dd	-ma
.	.	.	.	8d	-ma	.	.	.	.
4D	fe-	.	.	4A	fe-	4f	fe-	4dd	fe-
=16	=16	=16	=16	=16	=16	=16	=16	=16	=16
1A	-li-	4a	-sa,	1c	-li-	1e	-li-	2cc	-li-
.	.	4.a	L'al-	.	.	.	.	.	.
.	.	.	.	.	.	.	.	2a	-ce
.	.	8a	-ma	.	.	.	.	.	.
.	.	4e	fe-	.	.	.	.	.	.
1E	-ce	2g	-li-	1B	-ce	2e	-ce	4r	.
.	.	.	.	.	.	.	.	4ee	in
.	.	2e	-ce in	.	.	4r	.	2gg	sì
.	.	.	.	.	.	4g	in	.	.
=17	=17	=17	=17	=17	=17	=17	=17	=17	=17
2r	.	2a	si	1r	.	2cc	si	4ee	bel
.	.	.	.	.	.	.	.	4.ff	lac-
4r	.	2g	bel	.	.	4b	bel	.	.
.	.	.	.	.	.	.	.	8ee	.
4C	in	.	.	.	.	2cc	lac-	2ee	.
2F	si	4.f	lac-	4A	in	.	.	.	.
.	.	.	.	2d	si	4a	-cio	4dd	-cio
.	.	8d	.	.	.	.	.	.	.
2E	bel	2g	.	.	.	4g	pre-	2ee	pre-
.	.	.	.	4c#X	bel	4e	-sa,	.	.
=18	=18	=18	=18	=18	=18	=18	=18	=18	=18
4D	lac-	4f	-cio	4d	lac-	2r	.	1a	-sa,
4C#X	-cio	4.e	pre-	4e	-cio	.	.	.	.
2D	pre-	.	.	2f	pre-	4r	.	.	.
.	.	8d	.	.	.	.	.	.	.
.	.	4d	.	.	.	4a	A	.	.
1A	-sa,	2e	-sa,	4e	-sa,	4.cc	lei	2r	.
.	.	.	.	4c	A	.	.	.	.
.	.	.	.	.	.	8cc	che	.	.
.	.	2r	.	4.e	lei	4cc	più	4r	.
.	.	.	.	.	.	4cc	ch'al-	4ee	A
.	.	.	.	8e	che	.	.	.	.
=19	=19	=19	=19	=19	=19	=19	=19	=19	=19
4r	.	0r	.	4e	più	4b	-cun'	4.gg	lei
4E	A	.	.	4e	ch'al-	4.b	al-	.	.
.	.	.	.	.	.	.	.	8gg	che
4.G	lei	.	.	4d	-cun'	.	.	4gg	più
.	.	.	.	.	.	8b	-tra	.	.
.	.	.	.	4.d	al-	4b	gli	4gg	ch'al-
8G	che	.	.	.	.	.	.	.	.
4D	piì	.	.	.	.	1a	piac-	4ff	-cun'
.	.	.	.	8d	-tra	.	.	.	.
4D	ch'al-	.	.	4d	gli	.	.	4.ff	al-
8.FL	-cun'	.	.	[2c	piac-	.	.	.	.
.	.	.	.	.	.	.	.	8ff	-tra
16G	.	.	.	.	.	.	.	.	.
8.A	.	.	.	.	.	.	.	4ff	gli
16BJ	.	.	.	.	.	.	.	.	.
=20	=20	=20	=20	=20	=20	=20	=20	=20	=20
4c	.	0r	.	2c]	.	2.g	-que,	2ee	piac-
4C	al-	.	.	.	.	.	.	.	.
4G	-tra	.	.	4B	-que,	.	.	4dd	-que,
4G	gli	.	.	4d	Co-	4g	Co-	4b	Co-
2A	piac-	.	.	4c	-sì	2e	-sì	2cc	-sì
.	.	.	.	2A	lan-	.	.	.	.
4D	-que,	.	.	.	.	2f	lan-	4a	lan-
4D	Co-	.	.	[4d	-guen-	.	.	4b	-guen-
=21	=21	=21	=21	=21	=21	=21	=21	=21	=21
2E	-sì	2r	.	4d]	.	4e	-guen-	4g#X	-do
.	.	.	.	4c	-do	4e	-do	2a	dis-
2E	lan-	4r	.	2B	dis-	2e	dis-	.	.
.	.	4e	Co-	.	.	.	.	4g#i	.
2.D	-guen-	2f	-sì	2d	-se	4A	-se,	1a	-se
.	.	.	.	.	.	4d	Co-	.	.
.	.	4d	lan-	2r	.	4f	-sì	.	.
4A	-do	4e	-guen-	.	.	4c	lan-	.	.
=22	=22	=22	=22	=22	=22	=22	=22	=22	=22
2A	dis-	4c#X	-do	2r	.	4e	-guen-	1r	.
.	.	2d	dis-	.	.	4f	-do	.	.
2A	-se	.	.	4r	.	2e	dis-	.	.
.	.	4c#i	.	4a	e	.	.	.	.
1r	.	2d	-se	4f	poi	2d	-se	4r	.
.	.	.	.	4d	si	.	.	4dd	e
.	.	2r	.	2f	tac-	4r	.	4cc	poi
.	.	.	.	.	.	4a	e	4a	si
=23	=23	=23	=23	=23	=23	=23	=23	=23	=23
1r	.	2r	.	2e	-que,	4g	poi	2b	tac-
.	.	.	.	.	.	4e	si	.	.
.	.	4r	.	2r	.	2f	tac-	2a	-que,
.	.	4d	e	.	.	.	.	.	.
2A	e	4cnX	poi	2r	.	2e	-que,	1r	.
.	.	4A	si	.	.	.	.	.	.
4G	poi	2B	tac-	4r	.	2r	.	.	.
4E	si	.	.	4e	e	.	.	.	.
=24	=24	=24	=24	=24	=24	=24	=24	=24	=24
2F	tac-	2A	-que,	4c	poi	4r	.	1r	.
.	.	.	.	4A	si	4a	e	.	.
1E	-que,	2r	.	2c	tac-	4g	poi	.	.
.	.	.	.	.	.	4e	si	.	.
.	.	2r	.	2B	-que,	2g	tac-	4r	.
.	.	.	.	.	.	.	.	4ee	e
2A	si	4r	.	4r	.	2e	-que,	4cc	poi
.	.	4e	e	4c	<e	.	.	4a	si
=25	=25	=25	=25	=25	=25	=25	=25	=25	=25
1A	tac-	4c	poi	4e	poi	4r	.	1cc	tac-
.	.	4A	si	4e	si	4a	si	.	.
.	.	2e	tac-	2A	tac-	2a	tac-	.	.
1El	-que.	1el	-que.	1Bl	-que.>	1g#Xl	-que.	1bl	-que.
=26||	=26||	=26||	=26||	=26||	=26||	=26||	=26||	=26||	=26||
!!LO:TX:a:t=Seconda parte.
2A	Co-	2e	Co-	0r	.	2a	Co-	2cc	Co-
2D	-glie-	2d	-glie-	.	.	2.f	-glie-	2a	-glie-
2F	-te a-	2c	-te a-	.	.	.	.	2a	-te a-
.	.	.	.	.	.	4.f	-te a-	.	.
4F	-ni-	4c	-ni-	.	.	.	.	4a	-ni-
.	.	.	.	.	.	8f	-ni-	.	.
4A	-ma	4c	-ma	.	.	4e	-ma	4cc	-ma
=27	=27	=27	=27	=27	=27	=27	=27	=27	=27
2.G	mia,	2.d	mia,	0r	.	2.g	mia,	2.b	mia
4D	quest'	4f	quest'	.	.	4a	quest'	4dd	quest'
2A	al-	2e	al-	.	.	2a	al-	2cc#X	al-
2A	-ma,	2e	-ma,	.	.	2a	-ma,	2cc#i	-ma,
=28	=28	=28	=28	=28	=28	=28	=28	=28	=28
4r	.	4r	.	4r	.	4r	.	4r	.
4D	<Co-	4f	Co-	4d	Co-	4a	<Co-	4dd	<Co-
2D	-glie-	2d	-glie-	2A	-glie-	4a	-glie-	2ff	-glie-
.	.	.	.	.	.	4.a	-te a-	.	.
2A	-te a-	2e	-t'a-	2c	-te a-	.	.	2ee	-te a-
.	.	.	.	.	.	8a	-ni-	.	.
.	.	.	.	.	.	4a	-ma	.	.
4A	-ni-	4a	-ni-	4c	-ni-	2cc	mia,	4ee	-ni-
4c	-ma	4g	-ma	4e	-ma	.	.	4ee	-ma
=29	=29	=29	=29	=29	=29	=29	=29	=29	=29
2G	mia,	2g	mia,	2.d	mia,	2b	quest'	2gg	mia,
2F	quest'	2r	.	.	.	1a	al-	2dd	quest'
.	.	.	.	4A	quest'	.	.	.	.
2E	al-	2r	.	2e	al-	.	.	2cc	al-
2E	-ma,>	2B	Ch'i-	2e	-ma,	2g#X	-ma,>	2b	-ma,>
=30	=30	=30	=30	=30	=30	=30	=30	=30	=30
1r	.	4B	-o	2r	.	0r	.	0r	.
.	.	4e	vi	.	.	.	.	.	.
.	.	2.c	spi-	2e	Ch'i-	.	.	.	.
2r	.	.	.	4d	-o	.	.	.	.
.	.	4A	-ro in	4a	vi	.	.	.	.
2E	Ch'i-	2B	brac-	[2g	spi-	.	.	.	.
=31	=31	=31	=31	=31	=31	=31	=31	=31	=31
4E	-o	4B	-cio,	4g]	.	0r	.	2r	.
4A	vi	4c	vi	4e	-ro in	.	.	.	.
2.G	spi-	2.d	spi-	2g	brac-	.	.	2b	Ch'i-
.	.	.	.	2g	-cio,	.	.	4b	-o
4E	-ro in	4c	-ro in	.	.	.	.	4ee	vi
2F	brac-	8AL	brac-	4r	.	.	.	[2cc	spi-
.	.	8B	.	.	.	.	.	.	.
.	.	8c	.	4a	vi	.	.	.	.
.	.	8dJ	.	.	.	.	.	.	.
=32	=32	=32	=32	=32	=32	=32	=32	=32	=32
4C	-cio,	4e	.	4g	spi-	1r	.	4cc]	.
4F	in	2a	.	4c	-ro in	.	.	4a	-ro in
2E	brac-	.	.	2e	brac-	.	.	2b	brac-
.	.	4g#i	.	.	.	.	.	.	.
1A	-cio.	2a	-cio.	1e	-cio.	2r	.	1a	-cio.
.	.	2r	.	.	.	2cc	Ahi	.	.
=33	=33	=33	=33	=33	=33	=33	=33	=33	=33
1r	.	2f	Ahi	1r	.	4a	chi	2r	.
.	.	.	.	.	.	4a	mi	.	.
.	.	4d	chi	.	.	4.a	giun-	2ff	Ahi
.	.	4d	mi	.	.	.	.	.	.
.	.	.	.	.	.	8b	-ge al	.	.
2c	Ahi	4A	giun-	2r	.	2.cc	co-	4ee	chi
.	.	4A	-ge al	.	.	.	.	4ee	mi
4A	chi	2c	co-	4r	.	.	.	4.ee	giun-
4A	mi	.	.	[4e	Al	4a	-re,	.	.
.	.	.	.	.	.	.	.	8ff	-ge al
=34	=34	=34	=34	=34	=34	=34	=34	=34	=34
4E	giun-	4B	-re,	4e]	.	2r	.	4gg	co-
4E	-ge al	4g	Al	4c	cor,-	.	.	4ee	-re,
2F	co-	4.c	cor-	4A	-hai	4r	.	2r	.
.	.	.	.	2c	las-	2a	Al	.	.
.	.	8d	.	.	.	.	.	.	.
2E	-re,	4e	.	.	.	.	.	1r	.
.	.	4e	-re,	4B	-so,	4g	cor,-	.	.
2A	Al	2c	hai	2r	.	4e	-hai	.	.
.	.	.	.	.	.	[4f	las-	.	.
=35	=35	=35	=35	=35	=35	=35	=35	=35	=35
4B	cor,	4d	las-	2r	.	4f]	.	2r	.
4c	hai	2e	-so hai	.	.	4e	-so,	.	.
2A	las-	.	.	2c	<Al	2r	.	4r	.
.	.	4.f	las-	.	.	.	.	4a	Al
4G	-so,	.	.	4B	cor,-	1r	.	4b	cor,
.	.	8e	.	.	.	.	.	.	.
4E	Al	4.e	.	4G	-hai	.	.	4cc	hai
4F	cor,	.	.	4.A	las-	.	.	2a	las-
.	.	16dL	.	.	.	.	.	.	.
.	.	16cJ	.	.	.	.	.	.	.
4F	hai	4d	.	.	.	.	.	.	.
.	.	.	.	8B	.	.	.	.	.
=36	=36	=36	=36	=36	=36	=36	=36	=36	=36
2E	las-	2e	-so,	4c	.	4r	.	2g	-so un
.	.	.	.	4B	-so,>	2g	un	.	.
2D	-so un	2r	.	4r	.	.	.	4a	ve-
.	.	.	.	2d	un	4f#X	ve-	2b	-len
2E	ve-	1r	.	.	.	2g	-len	.	.
.	.	.	.	4c	ve-	.	.	2cc	dol-
2F	-len	.	.	4A	-len	2a	dol-	.	.
.	.	.	.	[4f	dol-	.	.	[4dd	-c'e
=37	=37	=37	=37	=37	=37	=37	=37	=37	=37
4G	dol-	2r	.	4f]	.	4b-X	-c'e	4dd]	.
4C	-c'e	.	.	4e	-c'e	2g	ri-	4.cc	ri-
2G	ri-	4r	.	2d	ri-	.	.	.	.
.	.	.	.	.	.	.	.	16bL	.
.	.	.	.	.	.	.	.	16aJ	.
.	.	[4G	un	.	.	4g	-o,	4b	.
2C	-o,	4G]	.	2e	-o,	4r	.	2cc	-o,
.	.	4A	ve-	.	.	4c	<un	.	.
2r	.	4B	-len	2r	.	4d	ve-	4r	.
.	.	[4c	dol-	.	.	[4e	-len	4g	un
=38	=38	=38	=38	=38	=38	=38	=38	=38	=38
4r	.	4c]	.	0r	.	4e]	.	4a	ve-
4G	un	2d	-c'e	.	.	2g	dol-	2b	-len
4G	ve-	.	.	.	.	.	.	.	.
4A	-len	4.c	ri-	.	.	4e	-c'e	4cc	dol-
2G	dol-	.	.	.	.	4.g	ri-	4dd	-c'e
.	.	16BL	.	.	.	.	.	.	.
.	.	16AJ	.	.	.	.	.	.	.
.	.	4B	.	.	.	.	.	4.ee	ri-
.	.	.	.	.	.	16fL	.	.	.
.	.	.	.	.	.	16gJ	.	.	.
2F	-c'e	4c	-o,	.	.	[2a	.	.	.
.	.	.	.	.	.	.	.	16ddL	.
.	.	.	.	.	.	.	.	16ccJ	.
.	.	4A	e	.	.	.	.	4dd	.
=39	=39	=39	=39	=39	=39	=39	=39	=39	=39
4.E	ri-	8cL	ri-	1r	.	4a]	.	2ee	-o!
.	.	8B	.	.	.	.	.	.	.
.	.	8B	.	.	.	4.g	.	.	.
16FL	.	16A	.	.	.	.	.	.	.
16GJ	.	16BJ	.	.	.	.	.	.	.
2A	.	4.c	.	.	.	.	.	2r	.
.	.	.	.	.	.	16f#iL	.	.	.
.	.	.	.	.	.	16eJ	.	.	.
.	.	.	.	.	.	4f#i	.	.	.
.	.	8d	.	.	.	.	.	.	.
2G	-o!	4e	.	2r	.	2g	-o!>	4r	.
.	.	4d	-o!	.	.	.	.	4b	Io'l
2r	.	4r	.	4r	.	2r	.	[2b	sent',
.	.	4g	Io'l	4e	Io'l	.	.	.	.
=40	=40	=40	=40	=40	=40	=40	=40	=40	=40
1r	.	2g	sent',	2e	sent',	0r	.	4b]	.
.	.	.	.	.	.	.	.	2cc	hoi-
.	.	2a	hoi-	2f	hoi-	.	.	.	.
.	.	.	.	.	.	.	.	4a	-mé,
4r	.	4g	-mé,	2e	-mé:	.	.	4r	.
4A	Io'l	4e	<Io'l	.	.	.	.	4cc	<Io'l
2A	sent',	4e	sent',	2r	.	.	.	2cc	sent'
.	.	[4f	hoi-	.	.	.	.	.	.
=41	=41	=41	=41	=41	=41	=41	=41	=41	=41
2B-X	hoi-	4f]	.	4r	.	0r	.	2dd	hoi-
.	.	4d	-mé:>	4f	da	.	.	.	.
2A	-mé:	4r	.	4f	que-	.	.	2cc	-mé:>
.	.	4c	da	4e	-ste	.	.	.	.
8r	.	4c	que-	2g	lab-	.	.	1r	.
8E	da	.	.	.	.	.	.	.	.
4E	que-	4B	-ste	.	.	.	.	.	.
4D	-ste	2d	lab-	4f	-br'a-	.	.	.	.
[4F	lab-	.	.	[4a	-mo-	.	.	.	.
=42	=42	=42	=42	=42	=42	=42	=42	=42	=42
4F]	.	4c	-br'a-	4a]	.	2r	.	8r	.
.	.	.	.	.	.	.	.	8cc	da
4E	-br'a-	4.e	-mo-	4g	-re,	.	.	4cc	que-
2G	-mo-	.	.	2r	.	4r	.	4b	-ste
.	.	16dL	.	.	.	.	.	.	.
.	.	16c	.	.	.	.	.	.	.
.	.	8d	.	.	.	2b-X	Per	2dd	lab-
.	.	8eJ	.	.	.	.	.	.	.
2F	-re,	2f	.	1r	.	.	.	.	.
.	.	.	.	.	.	4a	tron-	4cc	-br'a-
2r	.	2c	-re,	.	.	4a	-car	2ee	-mo-
.	.	.	.	.	.	[4g	la	.	.
=43	=43	=43	=43	=43	=43	=43	=43	=43	=43
0r	.	4r	.	0r	.	4g]	.	4dd	-re,
.	.	2d	Per	.	.	4a	ra-	2ff	Per
.	.	.	.	.	.	4f	-di-	.	.
.	.	4c	tron-	.	.	4g	-ce al	4ee	tron-
.	.	4c	-car	.	.	4a	vi-	4ee	-car
.	.	2B	la	.	.	4d	-ver	2dd	la
.	.	.	.	.	.	4.g	mi-	.	.
.	.	4c	ra-	.	.	.	.	4ee	ra-
.	.	.	.	.	.	16fL	.	.	.
.	.	.	.	.	.	16eJ	.	.	.
=44	=44	=44	=44	=44	=44	=44	=44	=44	=44
4r	.	4A	-di-	2.a	Per	2f	.	4cc	-di-
2F	Per	4c	-ce al	.	.	.	.	4a	-ce al
.	.	8cL	vi-	.	.	2c	-o	2cc	vi-
.	.	8d	.	.	.	.	.	.	.
4E	tron-	8e	.	4g	tron-	.	.	.	.
.	.	8fJ	.	.	.	.	.	.	.
4E	-car	8gL	.	4g	-car	1r	.	4b	-ver
.	.	8eJ	.	.	.	.	.	.	.
2D	la	4a	.	2f#X	la	.	.	2dd	mi-
.	.	4A	-ver	.	.	.	.	.	.
4E	ra-	[4e	mi-	4g	ra-	.	.	8ccL	.
.	.	.	.	.	.	.	.	8bJ	.
=45	=45	=45	=45	=45	=45	=45	=45	=45	=45
4C	-di-	4e]	.	4e	-di-	1r	.	8ccL	.
.	.	.	.	.	.	.	.	8ddJ	.
4C	-ce al	8dL	.	4g	-ce al	.	.	4ee	.
.	.	8cJ	.	.	.	.	.	.	.
8FL	vi-	4d	.	4fnXi	vi-	.	.	1a	-o
8G	.	.	.	.	.	.	.	.	.
8A	.	4c	-o	4f	-ver	.	.	.	.
8BJ	.	.	.	.	.	.	.	.	.
8cL	.	1r	.	4e	mi-	4r	.	.	.
8AJ	.	.	.	.	.	.	.	.	.
2d	.	.	.	4d	-o	4f	In	.	.
.	.	.	.	4r	.	4f	dol-	2r	.
4D	-ver	.	.	4A	In	[4f	-cis-	.	.
=46	=46	=46	=46	=46	=46	=46	=46	=46	=46
1A	mi-	0r	.	4c	dol-	8f]	.	4r	.
.	.	.	.	.	.	8f	-si-	.	.
.	.	.	.	4.c	-cis-	4f	-mi	4cc	In
.	.	.	.	.	.	4e	bac-	4cc	dol-
.	.	.	.	8c	-si-	.	.	.	.
.	.	.	.	4c	-mi	4e	-ci il	4.cc	-cis-
1E	-o	.	.	4e	bac-	4g	man-	.	.
.	.	.	.	.	.	.	.	8cc	-si-
.	.	.	.	4e	-ci il	4g	-da	4cc	-mi
.	.	.	.	4e	man-	2g	fuo-	4b	bac-
.	.	.	.	4e	-da	.	.	4b	-ci il
=47	=47	=47	=47	=47	=47	=47	=47	=47	=47
4r	.	2r	.	1f	fuo-	1a	-re,	4dd	man-
4D	In	.	.	.	.	.	.	4dd	-da
4F	dol-	4r	.	.	.	.	.	2cc	fuo-
4.F	-cis-	4f	In	.	.	.	.	.	.
.	.	4f	dol-	2c	-re,	4r	.	1a	-re,
8F	-si-	.	.	.	.	.	.	.	.
4F	-mi	4.f	-cis-	.	.	4cc	<In	.	.
4A	bac-	.	.	2r	.	4cc	dol-	.	.
.	.	8f	-si-	.	.	.	.	.	.
4A	-ci il	4f	-mi	.	.	[4cc	-cis-	.	.
=48	=48	=48	=48	=48	=48	=48	=48	=48	=48
4A	man-	4e	bac-	1r	.	8cc]	.	2r	.
.	.	.	.	.	.	8cc	-si-	.	.
4A	-da	4f	-ci il	.	.	4cc	-mi	.	.
2B-X	fuo-	4d	man-	.	.	4f	bac-	4r	.
.	.	4d	-da	.	.	4f	-ci il	4ff	<In
1F	-re,	2c	fuo-	2r	.	4a	man-	4ff	dol-
.	.	.	.	.	.	4a	-da	4.ff	-cis-
.	.	2A	-re,	4r	.	2cc	fuo-	.	.
.	.	.	.	.	.	.	.	8ff	-si-
.	.	.	.	4c	<In	.	.	4ff	-mi
=49	=49	=49	=49	=49	=49	=49	=49	=49	=49
2r	.	4r	.	4c	dol-	2g	-re,>	4ee	bac-
.	.	4e	In	4.c	-cis-	.	.	4ee	-ci il
4r	.	4e	dol-	.	.	4r	.	4gg	man-
.	.	.	.	8c	-si-	.	.	.	.
4E	<In	4.g	-cis-	4c	-mi	4e	In	4gg	-da
4E	dol-	.	.	4B	bac-	4b	dol-	2gg	fuo-
.	.	8g	-si-	.	.	.	.	.	.
4.G	-cis-	4d	-mi	4B	-ci il	4.b	-cis-	.	.
.	.	4g	bac-	4d	man-	.	.	2dd	-re,
8G	-si-	.	.	.	.	8b	-si-	.	.
4D	-mi	4f#X	-ci il	4d	-da	4a	-mi	.	.
=50	=50	=50	=50	=50	=50	=50	=50	=50	=50
2G	bac-	4.g	man-	1d	fuo-	2b	bac-	4r	.
.	.	.	.	.	.	.	.	4dd	il
.	.	8d	-da	.	.	.	.	.	.
2D	-ci il	4f	fuo-	.	.	4a	-ci il	4dd	man-
.	.	8d	-re,	.	.	4a	man-	4ff	-da
.	.	8A	il	.	.	.	.	.	.
4A	man-	4A	man-	[1el	-re.	4cc	-da	1ee	fuo-
4A	-da	4c	-da	.	.	4.a	fuo-	.	.
2E	fuo-	2B	fuo-	.	.	.	.	.	.
.	.	.	.	.	.	8g#X	.	.	.
.	.	.	.	.	.	4g#i	.	.	.
=51	=51	=51	=51	=51	=51	=51	=51	=51	=51
0Al	-re.>	0Al	-re.	0e]	.	0al	-re.	0cc#Xl	-re.>
==	==	==	==	==	==	==	==	==	==
*-	*-	*-	*-	*-	*-	*-	*-	*-	*-
!!!system-decoration: [*]
!!!RDF**kern: i = editorial accidental
!!!RDF**kern: l = terminal long
!!!ENC: Emiliano Ricciardi
!!!END: 2019
!!!EED: Donnelly, Daniel
!!!EEV: 2019/02/06
!!!YEC: Copyright 2018 Emiliano Ricciardi, All Rights Reserved
!!!ONB: Translated from MusicXML on 2019/02/06 and edited by Craig Stuart Sapp
!!@@BEGIN:	VERSEDATA
!!@SOLERTI:	367
!!@CATALOGNUM:	Trm0367
!!@LAST_MODIFIED: 2020/07/12
!!@TITLE:		Aminta, poi ch'a Filli non dispiacque
!!@GENRE:		sonetto
!!@MANUSRC:	P<sub>4</sub>, Y
!!@PRINTSRC:	none
!!@@BEGIN:	VERSES
!!@ABOUTIT:	[Fillide]
!!@ABOUTEN:	[Fillide]
!!@EDITOR:	Solerti, Angelo
!!@EDITION_TITLE: Le Rime di Torquato Tasso
!!@EDITION_LOC:	Bologna
!!@EDITION_PUB:	Romagnoli-Dall’Acqua
!!@EDITION_DATE:  1898-1902
!!@EDITION_VOL:	2
!!@EDITION_PAGE:  401
!!@TRANSLATOR:	Newcomb, Anthony; adapted by McCue Gill, Amyrose
!!@TRANSLATION_TITLE: “Texts, Translations and Commentaries,” in Luzzasco Luzzaschi, <i>Il
!!primo libro de’ madrigali a cinque voci (Ferrara, 1571); Secondo libro de madrigali a cinque
!!voci (Venice, 1576)</i>, ed. Anthony Newcomb, part 4 of <i>Complete Unaccompanied Madrigals</i>
!!@TRANSLATION_LOC: Madison, WI
!!@TRANSLATION_PUB: A-R Editions
!!@TRANSLATION_DATE:2010
!!@TRANSLATION_VOLUME: 4
!!@TRANSLATION_PAGE: xlvii
!!@VERSE:
!!	Aminta, poi ch'a Filli non dispiacque
!!	Del medesmo desir mostrarsi accesa
!!	E ch'ella a questo sol già tanto attesa
!!	Ne le sue braccia alfin nuda si giacque,
!!@VERSE:
!!	A lei, che più ch'alcun'altra gli piacque,
!!	Dal soverchio piacer sentendo offesa
!!	L'alma felice in sì bel laccio presa,
!!	Così languendo disse, e poi si tacque: &mdash;
!!@VERSE:
!!	Cogliete, anima mia, quest'alma ch'io
!!	Vi spiro in braccio. Ahi, che mi giunge al core,
!!	Al core, ahi lasso, un venen dolce e rio!
!!@VERSE:
!!	Io 'l sento, ohimé: da queste labbra amore
!!	Per troncar la radice al viver mio
!!	In dolcissimi baci il manda f&ocirc;re. &mdash;
!!@TVERSE:
!!	Amyntas, since Phyllis was not averse
!!	To showing herself aflame with the same desire
!!	And since she, who had already burned long with this [desire] alone,
!!	In his arms at last lay naked,
!!@TVERSE:
!!	By excessive pleasure feeling besieged,
!!	His happy soul, caught in so lovely a snare,
!!	To her, who pleased him more than any other woman,
!!	Thus swooning spoke, and then fell silent:
!!@TVERSE:
!!	“Gather up, my soul[mate], this soul that I
!!	forth in your arms. Alas, there arrives in my heart,
!!	In my heart, alas, a sweet and evil poison!
!!@TVERSE:
!!	I feel it, oh dear me: from these lips love,
!!	To eradicate my [very] life,
!!	Sends it forth in sweetest kisses.
!!@@END:		VERSES
!!@OTHER_CRIT_ED:   None
!!@ATTRIBUTION_ABOUT:	Secure
!!		<br>
!!		This sonnet is attirbuted to Tasso in two independent manuscripts (see Literary Sources). In addition, it appears in a musical setting by Ferrarese composer Luzzasco Luzzaschi published in 1576 (see Musical Settings), supporting a Ferrarese origin for the poem.
!!@DATING:	In or before 1576
!!	<br>
!!	The earliest datable appearance of this sonnet is in a musical setting by Ferrarese composer Luzzasco Luzzaschi published in 1576 (see Musical Settings).
!!@DEDICATEE:
!!@COMMENTARY:
!!@@END:		VERSEDATA
!!@@BEGIN:	SETTING
!!@CATALOGNUM:	Trm0367a
!!@RIMETITLE:	Aminta poi ch'a Filli non dispiacque
!!@SOLERTI:	367
!!@COMPOSER:	Luzzaschi, Luzzasco
!!@PRINCEPSTITLE:	Il secondo libro de madrigali a cinque voci
!!@PRINCEPSLOC:	Venetia
!!@NORMLOC:	Venice
!!@NORMPUB:	Angelo Gardano
!!@NORMPUBSHORT:	Gardano
!!@PRINCEPSPUB:	Gardano
!!@PRINCEPSYEAR:	1576
!!@PRINCEPSRISM:	L 3123
!!@REPRINTS:	
!!@OVOICES:	5
!!@EXTANTVOICES:	5
!!@PARTBOOKS:	
!!@EXTPARTBOOKS:	
!!@OCLEFS:	G2,C2,C3,C3,C4
!!@OMENSURATION:	C
!!@OKEYSIG:	-
!!@FINAL:	(E)A
!!@TIMPEDITOR:	Donnelly, Daniel
!!@NOTE:		
!!@@END:		SETTING
